X: 52
M:6/8
L:1/8
K:G
(ud/c/)|BAG EGD|EGD EGD|BAG EGD|EAA ABc|
|:uD|GBd "4"e2d|dgd "tr"B2A|GBd e2d|eaa a(ga)|
bag agf|(gfg/e/) dBA|BAG EGD|E(.G.G) G2:|


